assets/icons/partly-sunnny.svg

<?xml version="1.0" encoding="UTF-8"?>
<svg width="24px" height="24px" viewBox="0 0 24 24" version="1.1" xmlns="http://www.w3.org/2000/svg" xmlns:xlink="http://www.w3.org/1999/xlink">
    <!-- Generator: Sketch 53.2 (72643) - https://sketchapp.com -->
    <title>Icon/Weather/Partly Sunnny</title>
    <desc>Created with Sketch.</desc>
    <g id="Icon/Weather/Partly-Sunnny" stroke="none" stroke-width="1" fill="none" fill-rule="evenodd">
        <path d="M2,13.3361345 C2,13.5882353 2.08403361,13.7563025 2.25210084,13.9243697 C2.42016807,14.092437 2.58823529,14.1764706 2.84033613,14.1764706 L4.26890756,14.1764706 C4.5210084,14.1764706 4.68907563,14.092437 4.85714286,13.9243697 C5.02521008,13.7563025 5.1092437,13.5882353 5.1092437,13.3361345 C5.1092437,13.0840336 5.02521008,12.9159664 4.85714286,12.7478992 C4.68907563,12.5798319 4.5210084,12.4957983 4.26890756,12.4957983 L2.84033613,12.4957983 C2.58823529,12.4957983 2.42016807,12.5798319 2.25210084,12.7478992 C2.08403361,12.9159664 2,13.0840336 2,13.3361345 Z M3.51260504,18.5462185 C3.51260504,19.3865546 3.76470588,20.0588235 4.43697479,20.6470588 C5.02521008,21.2352941 5.69747899,21.5714286 6.53781513,21.5714286 L12.3361345,21.5714286 C13.1764706,21.5714286 13.8487395,21.2352941 14.4369748,20.7310924 C15.0252101,20.1428571 15.2773109,19.4705882 15.2773109,18.6302521 C15.2773109,18.210084 15.1932773,17.8739496 15.1092437,17.6218487 C15.7815126,17.2016807 16.3697479,16.6134454 16.789916,15.8571429 C17.210084,15.1008403 17.3781513,14.3445378 17.3781513,13.5042017 C17.3781513,12.8319328 17.210084,12.1596639 16.9579832,11.5714286 C16.7058824,10.9831933 16.2857143,10.394958 15.8655462,9.97478992 C15.4453782,9.55462185 14.8571429,9.13445378 14.2689076,8.88235294 C13.6806723,8.6302521 13.0084034,8.46218487 12.3361345,8.46218487 C11.4117647,8.46218487 10.5714286,8.71428571 9.81512605,9.13445378 C9.05882353,9.55462185 8.47058824,10.2268908 7.96638655,10.9831933 C7.54621849,11.7394958 7.29411765,12.5798319 7.29411765,13.5042017 L7.29411765,13.7563025 C6.45378151,14.2605042 5.86554622,14.9327731 5.61344538,15.8571429 C4.94117647,16.0252101 4.43697479,16.4453782 4.10084034,16.9495798 C3.68067227,17.2857143 3.51260504,17.8739496 3.51260504,18.5462185 Z M4.77310924,6.61344538 C4.77310924,6.86554622 4.85714286,7.03361345 5.02521008,7.20168067 L6.3697479,8.6302521 C6.78991597,8.96638655 7.12605042,8.96638655 7.54621849,8.6302521 C7.71428571,8.46218487 7.79831933,8.29411765 7.79831933,8.04201681 C7.79831933,7.78991597 7.71428571,7.62184874 7.54621849,7.45378151 L6.20168067,6.1092437 C5.94957983,5.94117647 5.78151261,5.85714286 5.52941176,5.85714286 C5.27731092,5.85714286 5.1092437,5.94117647 4.94117647,6.1092437 C4.77310924,6.27731092 4.77310924,6.44537815 4.77310924,6.61344538 Z M5.1092437,18.5462185 C5.1092437,18.210084 5.19327731,17.8739496 5.44537815,17.6218487 C5.69747899,17.3697479 5.94957983,17.2016807 6.28571429,17.2016807 L6.78991597,17.1176471 C6.87394958,17.1176471 6.95798319,17.0336134 6.95798319,16.9495798 L7.04201681,16.4453782 C7.12605042,15.9411765 7.29411765,15.5210084 7.6302521,15.2689076 C7.96638655,14.9327731 8.38655462,14.7647059 8.8907563,14.7647059 C9.39495798,14.7647059 9.81512605,14.9327731 10.1512605,15.2689076 C10.487395,15.605042 10.7394958,16.0252101 10.8235294,16.4453782 L10.907563,16.9495798 C10.9915966,17.2016807 11.0756303,17.2016807 11.1596639,17.2016807 L12.2521008,17.2016807 C12.5882353,17.2016807 12.9243697,17.3697479 13.1764706,17.6218487 C13.4285714,17.8739496 13.5966387,18.210084 13.5966387,18.5462185 C13.5966387,18.9663866 13.4285714,19.2184874 13.1764706,19.4705882 C12.9243697,19.7226891 12.5882353,19.8907563 12.2521008,19.8907563 L6.45378151,19.8907563 C6.11764706,19.8907563 5.78151261,19.7226891 5.52941176,19.4705882 C5.27731092,19.302521 5.1092437,18.9663866 5.1092437,18.5462185 Z M8.8907563,13.1680672 C8.97478992,12.2436975 9.31092437,11.487395 9.98319328,10.8151261 C10.6554622,10.2268908 11.4117647,9.8907563 12.3361345,9.8907563 C13.2605042,9.8907563 14.1008403,10.2268908 14.6890756,10.8991597 C15.3613445,11.5714286 15.697479,12.4117647 15.697479,13.3361345 C15.697479,13.9243697 15.5294118,14.512605 15.2773109,14.9327731 C15.0252101,15.4369748 14.605042,15.8571429 14.1008403,16.1932773 C13.5966387,15.7731092 13.0084034,15.605042 12.4201681,15.605042 C12.1680672,14.8487395 11.7478992,14.2605042 11.1596639,13.8403361 C10.5714286,13.4201681 9.81512605,13.1680672 9.05882353,13.1680672 C8.97478992,13.1680672 8.8907563,13.1680672 8.8907563,13.1680672 Z M11.4957983,5.85714286 C11.4957983,6.1092437 11.5798319,6.27731092 11.7478992,6.44537815 C11.9159664,6.61344538 12.0840336,6.69747899 12.3361345,6.69747899 C12.5882353,6.69747899 12.7563025,6.61344538 12.9243697,6.44537815 C13.092437,6.27731092 13.1764706,6.1092437 13.1764706,5.85714286 L13.1764706,3.84033613 C13.1764706,3.58823529 13.092437,3.42016807 12.9243697,3.25210084 C12.7563025,3.08403361 12.5882353,3 12.3361345,3 C12.0840336,3 11.9159664,3.08403361 11.7478992,3.25210084 C11.5798319,3.42016807 11.4957983,3.58823529 11.4957983,3.84033613 C11.4957983,3.84033613 11.4957983,5.85714286 11.4957983,5.85714286 Z M16.789916,18.6302521 C16.789916,18.8823529 16.8739496,19.0504202 17.0420168,19.2184874 L18.3865546,20.5630252 C18.7226891,20.8991597 19.1428571,20.8991597 19.5630252,20.5630252 C19.7310924,20.394958 19.8151261,20.2268908 19.8151261,19.9747899 C19.8151261,19.7226891 19.7310924,19.5546218 19.5630252,19.3865546 L18.1344538,18.0420168 C17.9663866,17.8739496 17.7983193,17.8739496 17.5462185,17.8739496 C17.2941176,17.8739496 17.1260504,17.9579832 16.9579832,18.1260504 C16.8739496,18.210084 16.789916,18.3781513 16.789916,18.6302521 Z M16.789916,8.04201681 C16.789916,8.29411765 16.8739496,8.46218487 17.0420168,8.6302521 C17.210084,8.79831933 17.3781513,8.88235294 17.6302521,8.88235294 C17.8823529,8.88235294 18.0504202,8.79831933 18.2184874,8.6302521 L19.5630252,7.20168067 C19.7310924,7.03361345 19.8151261,6.86554622 19.8151261,6.61344538 C19.8151261,6.36134454 19.7310924,6.19327731 19.5630252,6.1092437 C19.394958,6.02521008 19.2268908,5.85714286 18.9747899,5.85714286 C18.7226891,5.85714286 18.5546218,5.94117647 18.3865546,6.1092437 L17.0420168,7.45378151 C16.8739496,7.62184874 16.789916,7.78991597 16.789916,8.04201681 Z M18.8907563,13.3361345 C18.8907563,13.5882353 18.9747899,13.7563025 19.1428571,13.9243697 C19.3109244,14.092437 19.4789916,14.1764706 19.7310924,14.1764706 L21.1596639,14.1764706 C21.4117647,14.1764706 21.5798319,14.092437 21.7478992,13.9243697 C21.9159664,13.7563025 22,13.5882353 22,13.3361345 C22,13.0840336 21.9159664,12.9159664 21.7478992,12.7478992 C21.5798319,12.5798319 21.4117647,12.4957983 21.1596639,12.4957983 L19.7310924,12.4957983 C19.4789916,12.4957983 19.3109244,12.5798319 19.1428571,12.7478992 C19.0588235,12.9159664 18.8907563,13.0840336 18.8907563,13.3361345 Z" id="Shape" fill="#000000"></path>
    </g>
</svg>

<svg class="ucla-icon partly-sunny" width="24" height="24" viewBox="0 0 24 24" aria-labelledby="icon-partly-sunny" role="img"><title id="icon-partly-sunny">Icon Weather/Partly Sunnny</title><g fill="none" fill-rule="evenodd"><path d="M2 13.336c0 .252.084.42.252.588a.763.763 0 0 0 .588.252H4.27c.252 0 .42-.084.588-.252a.763.763 0 0 0 .252-.588.763.763 0 0 0-.252-.588.763.763 0 0 0-.588-.252H2.84a.763.763 0 0 0-.588.252.763.763 0 0 0-.252.588zm1.513 5.21c0 .84.252 1.513.924 2.101.588.588 1.26.924 2.1.924h5.8c.84 0 1.512-.336 2.1-.84.588-.588.84-1.26.84-2.1 0-.42-.084-.757-.168-1.01a4.853 4.853 0 0 0 1.68-1.764c.421-.756.59-1.512.59-2.353 0-.672-.169-1.344-.421-1.933a5.383 5.383 0 0 0-1.092-1.596 5.383 5.383 0 0 0-1.597-1.093 4.985 4.985 0 0 0-1.933-.42c-.924 0-1.765.252-2.52.672-.757.42-1.345 1.093-1.85 1.85a5.134 5.134 0 0 0-.672 2.52v.252c-.84.505-1.428 1.177-1.68 2.101-.673.168-1.177.588-1.513 1.093-.42.336-.588.924-.588 1.596zm1.26-11.933c0 .253.084.42.252.589L6.37 8.63c.42.336.756.336 1.176 0a.763.763 0 0 0 .252-.588.763.763 0 0 0-.252-.588L6.202 6.109c-.252-.168-.42-.252-.673-.252a.763.763 0 0 0-.588.252c-.168.168-.168.336-.168.504zm.336 11.933c0-.336.084-.672.336-.924s.505-.42.84-.42l.505-.084a.18.18 0 0 0 .168-.168l.084-.505c.084-.504.252-.924.588-1.176.336-.336.757-.504 1.26-.504.505 0 .925.168 1.261.504.336.336.588.756.673 1.176l.084.505c.084.252.168.252.252.252h1.092c.336 0 .672.168.924.42.253.252.42.588.42.924 0 .42-.167.672-.42.925-.252.252-.588.42-.924.42H6.454c-.336 0-.672-.168-.925-.42-.252-.168-.42-.505-.42-.925zm3.782-5.378c.084-.924.42-1.68 1.092-2.353.672-.588 1.429-.924 2.353-.924.925 0 1.765.336 2.353 1.008a3.366 3.366 0 0 1 1.008 2.437c0 .588-.168 1.177-.42 1.597-.252.504-.672.924-1.176 1.26-.504-.42-1.093-.588-1.68-.588-.253-.756-.673-1.344-1.261-1.765a3.677 3.677 0 0 0-2.101-.672H8.89zm2.605-7.31c0 .251.084.42.252.587a.763.763 0 0 0 .588.252c.252 0 .42-.084.588-.252a.763.763 0 0 0 .252-.588V3.84a.763.763 0 0 0-.252-.588.763.763 0 0 0-.588-.252.763.763 0 0 0-.588.252.763.763 0 0 0-.252.588v2.017zM16.79 18.63c0 .252.084.42.252.588l1.345 1.345c.336.336.756.336 1.176 0a.763.763 0 0 0 .252-.588.763.763 0 0 0-.252-.588l-1.429-1.345c-.168-.168-.336-.168-.588-.168a.763.763 0 0 0-.588.252c-.084.084-.168.252-.168.504zm0-10.588c0 .252.084.42.252.588a.763.763 0 0 0 .588.252c.252 0 .42-.084.588-.252l1.345-1.428a.763.763 0 0 0 .252-.589c0-.252-.084-.42-.252-.504-.168-.084-.336-.252-.588-.252a.763.763 0 0 0-.588.252l-1.345 1.345a.763.763 0 0 0-.252.588zm2.1 5.294c0 .252.085.42.253.588a.763.763 0 0 0 .588.252h1.429c.252 0 .42-.084.588-.252a.763.763 0 0 0 .252-.588.763.763 0 0 0-.252-.588.763.763 0 0 0-.588-.252H19.73a.763.763 0 0 0-.588.252c-.084.168-.252.336-.252.588z" id="Shape" fill="#000"/></g></svg>
